; Source: https://github.com/DistRap/gcodehs (sample.gcode)
( pcb2gcode 1.2.1 )
( Software-independent Gcode )
      
G94 ( Millimeters per minute feed rate. )
G21 ( Units == Millimeters. )

G90 ( Absolute coordinates. )
G00 Z2.00000
S30000

G00 X2.05580 Y31.49440 F9000 ( rapid move to begin. )
F200
G01 Z-0.05000
G01 X2.05580 Y31.49440 F600.00000
G01 X2.28440 Y31.34200 F600.00000
G01 X2.43680 Y31.08800 F600.00000
G01 X2.51300 Y30.75780 F600.00000
G01 X2.48760 Y30.47840 F600.00000
G01 X14.47640 Y14.01920 F600.00000
G01 X14.67960 Y14.01920 F600.00000
G01 X14.80660 Y13.94300 F600.00000
G01 X14.80660 Y13.58740 F600.00000
G01 X14.52720 Y13.46040 F600.00000
G01 X14.01920 Y13.46040 F600.00000
G01 X13.79060 Y13.63820 F600.00000
G01 X13.71440 Y13.76520 F600.00000
G01 X13.71440 Y14.57800 F600.00000
G01 X13.76520 Y14.73040 F600.00000
G01 X13.99380 Y14.90820 F600.00000
G01 X14.57800 Y14.93360 F600.00000
G00 Z2.00000 F200 ( retract )

G00 X2.05580 Y13.71440 F9000 ( rapid move to begin. )
G01 Z-0.05000
G01 X2.05580 Y13.71440 F600.00000
G01 X2.28440 Y13.56200 F600.00000
G01 X2.36060 Y13.43500 F600.00000
G01 X3.98620 Y13.43500 F600.00000
G01 X4.31640 Y13.35880 F600.00000
G01 X4.49420 Y13.13020 F600.00000
G01 X4.54500 Y12.97780 F600.00000
G01 X4.54500 Y12.11420 F600.00000
G01 X5.96740 Y12.11420 F600.00000
G01 X6.29760 Y12.19040 F600.00000
G01 X8.07560 Y12.13960 F600.00000
G01 X8.20260 Y12.06340 F600.00000
G01 X8.35500 Y11.80940 F600.00000
G01 X13.18100 Y7.08500 F600.00000
G01 X13.46040 Y7.05960 F600.00000
G01 X13.58740 Y6.98340 F600.00000
G01 X13.84140 Y6.98340 F600.00000
G01 X13.84140 Y6.06900 F600.00000
G01 X13.76520 Y6.04360 F600.00000
G01 X13.73980 Y3.83380 F600.00000
G01 X13.68900 Y3.78300 F600.00000
G01 X13.68900 Y3.47820 F600.00000
G01 X13.61280 Y3.45280 F600.00000
G01 X13.63820 Y3.27500 F600.00000
G01 X25.60160 Y3.30040 F600.00000
G01 X25.62700 Y5.51020 F600.00000
G01 X25.80480 Y5.73880 F600.00000
G01 X26.13500 Y5.81500 F600.00000
G01 X27.93840 Y5.84040 F600.00000
G01 X28.01460 Y5.96740 F600.00000
G01 X28.26860 Y6.11980 F600.00000
G01 X28.59880 Y6.19600 F600.00000
G01 X29.20840 Y6.19600 F600.00000
G01 X29.46240 Y6.14520 F600.00000
G01 X29.69100 Y5.96740 F600.00000
G01 X29.86880 Y5.73880 F600.00000
G01 X29.94500 Y5.40860 F600.00000
G01 X29.94500 Y5.05300 F600.00000
G01 X29.86880 Y4.72280 F600.00000
G01 X29.69100 Y4.49420 F600.00000
G01 X29.43700 Y4.34180 F600.00000
G01 X29.08140 Y4.29100 F600.00000
G01 X28.67500 Y4.29100 F600.00000
G01 X28.31940 Y4.34180 F600.00000
G01 X28.06540 Y4.49420 F600.00000
G01 X27.91300 Y4.64660 F600.00000
G01 X26.79540 Y4.64660 F600.00000
G01 X26.79540 Y3.27500 F600.00000
G01 X27.91300 Y3.27500 F600.00000
G01 X27.98920 Y3.40200 F600.00000
G01 X28.21780 Y3.57980 F600.00000
G01 X28.54800 Y3.65600 F600.00000
G01 X29.33540 Y3.63060 F600.00000
G01 X29.61480 Y3.50360 F600.00000
G01 X29.81800 Y3.30040 F600.00000
G01 X29.94500 Y3.02100 F600.00000
G01 X29.97040 Y2.64000 F600.00000
G01 X29.91960 Y2.28440 F600.00000
G01 X29.76720 Y2.03040 F600.00000
G01 X29.53860 Y1.85260 F600.00000
G01 X29.23380 Y1.75100 F600.00000
G01 X28.26860 Y1.80180 F600.00000
G01 X27.93840 Y2.08120 F600.00000
G01 X12.72380 Y2.10660 F600.00000
G01 X12.44440 Y2.23360 F600.00000
G01 X12.34280 Y2.33520 F600.00000
G01 X12.26660 Y2.66540 F600.00000
G01 X12.26660 Y2.86860 F600.00000
G01 X12.31740 Y3.02100 F600.00000
G01 X12.41900 Y3.12260 F600.00000
G01 X12.44440 Y3.45280 F600.00000
G01 X12.34280 Y3.45280 F600.00000
G01 X12.34280 Y4.46880 F600.00000
G01 X12.59680 Y4.51960 F600.00000
G01 X12.59680 Y5.94200 F600.00000
G01 X12.44440 Y5.99280 F600.00000
G01 X7.56760 Y10.86960 F600.00000
G01 X6.37380 Y10.89500 F600.00000
G01 X6.01820 Y10.94580 F600.00000
G01 X4.54500 Y10.94580 F600.00000
G01 X4.51960 Y7.51680 F600.00000
G01 X4.34180 Y7.28820 F600.00000
G01 X4.21480 Y7.21200 F600.00000
G01 X2.41140 Y7.18660 F600.00000
G01 X2.00500 Y6.88180 F600.00000
G01 X1.64940 Y6.83100 F600.00000
G01 X1.03980 Y6.83100 F600.00000
G01 X0.73500 Y6.93260 F600.00000
G01 X0.50640 Y7.11040 F600.00000
G01 X0.35400 Y7.36440 F600.00000
G01 X0.30320 Y7.72000 F600.00000
G01 X0.32860 Y8.10100 F600.00000
G01 X0.45560 Y8.38040 F600.00000
G01 X0.65880 Y8.58360 F600.00000
G01 X0.93820 Y8.71060 F600.00000
G01 X1.72560 Y8.73600 F600.00000
G01 X2.05580 Y8.65980 F600.00000
G01 X2.28440 Y8.48200 F600.00000
G01 X2.36060 Y8.35500 F600.00000
G01 X3.37660 Y8.35500 F600.00000
G01 X3.37660 Y9.72660 F600.00000
G01 X2.36060 Y9.72660 F600.00000
G01 X2.15740 Y9.52340 F600.00000
G01 X1.87800 Y9.39640 F600.00000
G01 X1.09060 Y9.37100 F600.00000
G01 X0.76040 Y9.44720 F600.00000
G01 X0.53180 Y9.62500 F600.00000
G01 X0.37940 Y9.87900 F600.00000
G01 X0.30320 Y10.20920 F600.00000
G01 X0.32860 Y10.59020 F600.00000
G01 X0.45560 Y10.86960 F600.00000
G01 X0.63340 Y11.09820 F600.00000
G01 X0.81120 Y11.22520 F600.00000
G01 X1.16680 Y11.27600 F600.00000
G01 X1.77640 Y11.27600 F600.00000
G01 X2.08120 Y11.17440 F600.00000
G01 X2.30980 Y10.99660 F600.00000
G01 X2.33520 Y10.92040 F600.00000
G01 X3.37660 Y10.89500 F600.00000
G01 X3.37660 Y12.26660 F600.00000
G01 X2.36060 Y12.26660 F600.00000
G01 X2.15740 Y12.06340 F600.00000
G01 X1.87800 Y11.93640 F600.00000
G01 X1.09060 Y11.91100 F600.00000
G01 X0.76040 Y11.98720 F600.00000
G01 X0.53180 Y12.16500 F600.00000
G01 X0.37940 Y12.41900 F600.00000
G01 X0.30320 Y12.74920 F600.00000
G01 X0.32860 Y13.13020 F600.00000
G01 X0.45560 Y13.40960 F600.00000
G01 X0.63340 Y13.63820 F600.00000
G01 X0.81120 Y13.76520 F600.00000
G01 X1.16680 Y13.81600 F600.00000
G01 X1.77640 Y13.81600 F600.00000
G01 X2.05580 Y13.73980 F600.00000
G00 Z2.00000 F200 ( retract )

G00 X21.30900 Y6.98340 F9000 ( rapid move to begin. )
G01 Z-0.05000
G01 X21.30900 Y6.98340 F600.00000
G01 X21.30900 Y5.99280 F600.00000
G01 X20.92800 Y5.96740 F600.00000
G01 X20.77560 Y5.91660 F600.00000
G01 X18.54040 Y5.91660 F600.00000
G01 X18.18480 Y6.06900 F600.00000
G01 X18.08320 Y6.37380 F600.00000
G01 X18.10860 Y6.75480 F600.00000
G01 X18.18480 Y6.88180 F600.00000
G01 X18.18480 Y6.98340 F600.00000
G01 X18.28640 Y6.98340 F600.00000
G01 X18.41340 Y7.05960 F600.00000
G01 X20.82640 Y7.08500 F600.00000
G01 X20.97880 Y7.03420 F600.00000
G01 X21.28360 Y7.03420 F600.00000
G00 Z2.00000 F200 ( retract )

G00 X17.54980 Y4.44340 F9000 ( rapid move to begin. )
G01 Z-0.05000
G01 X17.54980 Y4.44340 F600.00000
G01 X17.62600 Y4.44340 F600.00000
G01 X17.72760 Y4.24020 F600.00000
G01 X17.72760 Y3.68140 F600.00000
G01 X17.54980 Y3.45280 F600.00000
G01 X17.21960 Y3.37660 F600.00000
G01 X15.18760 Y3.37660 F600.00000
G01 X14.85740 Y3.45280 F600.00000
G01 X14.55260 Y3.45280 F600.00000
G01 X14.52720 Y4.49420 F600.00000
G01 X14.93360 Y4.49420 F600.00000
G01 X15.08600 Y4.54500 F600.00000
G01 X17.32120 Y4.54500 F600.00000
G01 X17.54980 Y4.46880 F600.00000

G04 P0 ( dwell for no time -- G64 should not smooth over this point )
G00 Z2.00000 ( retract )

M5 ( Spindle off. )
M9 ( Coolant off. )
M2 ( Program end. )

