; Source: https://github.com/arpruss/miscellaneous-scad (circle-a.gcode, Estlcam output)
;Project circle-a
;Created by Estlcam version 11 build 11.042
;Machining time about 00:03:41 hours

G90
M03 S24000
G00 X0.0000 Y0.0000 Z0.0000 F2100
G00 Z3.0000 F480


;No. 1: Hole 3
G00 X20.7644 Y19.9625 F2100
G00 Z0.5000 F480
G01 Z-1.5000 F180 S24000
G01 X24.8566 F900
G01 X25.3205 Y21.3935 F900
G01 X21.2579 F900
G01 X21.7554 Y22.8245 F900
G01 X25.7844 F900
G01 X26.2482 Y24.2555 F900
G01 X22.2528 F900
G01 X22.7502 Y25.6865 F900
G01 X26.7121 F900
G01 X27.1760 Y27.1175 F900
G01 X23.2477 F900
G01 X23.7451 Y28.5485 F900
G01 X28.1280 F900
G01 X24.2425 F900
G01 Y29.9795 F900
G01 X49.8619 F900
G01 X50.3610 Y28.5485 F900
G01 X45.1995 F900
G01 X46.1582 Y27.1175 F900
G01 X50.8601 F900
G01 X51.3593 Y25.6865 F900
G01 X46.6371 F900
G01 X47.1160 Y24.2555 F900
G01 X51.8584 F900
G01 X52.3575 Y22.8245 F900
G01 X47.5949 F900
G01 X48.0738 Y21.3935 F900
G01 X52.8566 F900
G01 X53.3506 Y19.9625 F900
G01 X48.5528 F900
G00 Z3.0000 F480
G00 X30.2396 Y29.9795 F2100
G00 Z0.5000 F480
G01 Z-1.5000 F180
G01 Y31.4105 F900
G01 X24.7400 F900
G01 X25.2374 Y32.8415 F900
G01 X29.0435 F900
G01 X29.2675 Y34.2725 F900
G01 X25.7349 F900
G01 X26.2323 Y35.7035 F900
G01 X29.7437 F900
G01 X30.2199 Y37.1345 F900
G01 X26.7297 F900
G01 X27.2272 Y38.5655 F900
G01 X30.6961 F900
G01 X31.1723 Y39.9965 F900
G01 X27.7246 F900
G01 X28.2220 Y41.4275 F900
G01 X31.6485 F900
G01 X32.1247 Y42.8585 F900
G01 X28.7195 F900
G01 X29.2169 Y44.2895 F900
G01 X32.6009 F900
G01 X33.0771 Y45.7205 F900
G01 X29.7144 F900
G01 X30.2118 Y47.1515 F900
G01 X33.5533 F900
G01 X34.0295 Y48.5825 F900
G01 X30.7092 F900
G01 X31.2067 Y50.0135 F900
G01 X34.5057 F900
G01 X35.0981 Y51.4445 F900
G01 X31.7041 F900
G01 X32.2015 Y52.8755 F900
G01 X41.8760 F900
G01 X42.3752 Y51.4445 F900
G01 X38.1367 F900
G01 X38.7311 Y50.0135 F900
G01 X42.8743 F900
G01 X43.3734 Y48.5825 F900
G01 X39.2073 F900
G01 X39.6835 Y47.1515 F900
G01 X43.8725 F900
G01 X44.3716 Y45.7205 F900
G01 X40.1597 F900
G01 X40.6359 Y44.2895 F900
G01 X44.8707 F900
G01 X45.3699 Y42.8585 F900
G01 X41.1121 F900
G01 X41.5883 Y41.4275 F900
G01 X45.8690 F900
G01 X46.3681 Y39.9965 F900
G01 X42.0645 F900
G01 X42.5407 Y38.5655 F900
G01 X46.8672 F900
G01 X47.3663 Y37.1345 F900
G01 X43.0169 F900
G01 X43.4931 Y35.7035 F900
G01 X47.8654 F900
G01 X48.3646 Y34.2725 F900
G01 X43.9693 F900
G01 X44.1926 Y32.8415 F900
G01 X48.8637 F900
G01 X49.3628 Y31.4105 F900
G01 X42.9963 F900
G00 Z3.0000 F480
G00 X41.3769 Y52.8755 F2100
G00 Z0.5000 F480
G01 Z-1.5000 F180
G01 Y54.3065 F900
G01 X32.6990 F900
G01 X33.1964 Y55.7375 F900
G01 X40.8778 F900
G00 Z3.0000 F480
G00 X38.1367 Y51.4445 F2100
G00 Z0.5000 F480
G01 Z-1.5000 F180
G01 X37.5956 Y51.5388 F900
G03 X35.0879 Y50.7557 I-0.9751 J-1.2842 F900
G01 X29.4100 Y33.6936 F900
G03 X29.3290 Y33.2253 I1.5087 J-0.5021 F900
G01 X29.3335 Y33.0664 F900
G03 X30.9386 Y31.6015 I1.5853 J0.1252 F900
G01 X42.3181 F900
G03 X43.8205 Y33.7125 I-0.0001 J1.5902 F900
G01 X38.1426 Y50.7746 F900
G03 X37.5956 Y51.5388 I-1.5087 J-0.5020 F900
G01 X38.1367 Y51.4445 F900
G00 Z3.0000 F480
G00 X41.8760 Y52.8755 F2100
G00 Z0.5000 F480
G01 Z-1.5000 F180
G01 X42.2157 Y52.8672 F900
G01 X53.5765 Y20.2952 F900
G02 X53.8865 Y19.2485 I-12.8394 J-4.3717 F900
G01 X53.8595 Y19.2379 F900
G02 X48.4421 Y19.2920 I-2.3602 J34.9573 F900
G01 X45.7271 Y27.4037 F900
G03 X44.2129 Y28.5081 I-1.5142 J-0.4860 F900
G01 X29.1371 F900
G03 X27.6046 Y27.4084 I-0.0197 J-1.5902 F900
G01 X25.0637 Y19.5701 F900
G02 X24.9832 Y19.3333 I-1.5879 J0.4076 F900
G01 X24.9730 Y19.3267 F900
G02 X23.1082 Y19.1696 I-1.7128 J9.1834 F900
G02 X20.2263 Y19.2331 I-0.9871 J20.6412 F900
G02 X20.5569 Y20.3452 I11.8688 J-2.9228 F900
G01 X32.9458 Y55.9849 F900
G02 X33.1055 Y56.3245 I0.7612 J-0.1507 F900
G02 X34.2783 Y56.4808 I1.1155 J-3.8922 F900
G02 X40.3400 Y56.4291 I2.5696 J-54.1448 F900
G02 X41.0023 Y56.2869 I-0.2835 J-2.9322 F900
G02 X41.1586 Y55.8981 I-1.8037 J-0.9510 F900
G01 X42.2157 Y52.8672 F900
G01 X41.8760 Y52.8755 F900
G00 Z3.0000 F480
G00 X24.8566 Y19.9625 F2100
G00 Z-1.0000 F480
G01 Z-3.0000 F180
G01 X20.7644 F900
G01 X21.2579 Y21.3935 F900
G01 X25.3205 F900
G01 X25.7844 Y22.8245 F900
G01 X21.7554 F900
G01 X22.2528 Y24.2555 F900
G01 X26.2482 F900
G01 X26.7121 Y25.6865 F900
G01 X22.7502 F900
G01 X23.2477 Y27.1175 F900
G01 X27.1760 F900
G01 X28.1280 Y28.5485 F900
G01 X23.7451 F900
G01 X24.2425 Y29.9795 F900
G01 X49.8619 F900
G01 X50.3610 Y28.5485 F900
G01 X45.1995 F900
G01 X46.1582 Y27.1175 F900
G01 X50.8601 F900
G01 X51.3593 Y25.6865 F900
G01 X46.6371 F900
G01 X47.1160 Y24.2555 F900
G01 X51.8584 F900
G01 X52.3575 Y22.8245 F900
G01 X47.5949 F900
G01 X48.0738 Y21.3935 F900
G01 X52.8566 F900
G01 X53.3506 Y19.9625 F900
G01 X48.5528 F900
G00 Z3.0000 F480
G00 X30.2396 Y29.9795 F2100
G00 Z-1.0000 F480
G01 Z-3.0000 F180
G01 Y31.4105 F900
G01 X24.7400 F900
G01 X25.2374 Y32.8415 F900
G01 X29.0435 F900
G01 X29.2675 Y34.2725 F900
G01 X25.7349 F900
G01 X26.2323 Y35.7035 F900
G01 X29.7437 F900
G01 X30.2199 Y37.1345 F900
G01 X26.7297 F900
G01 X27.2272 Y38.5655 F900
G01 X30.6961 F900
G01 X31.1723 Y39.9965 F900
G01 X27.7246 F900
G01 X28.2220 Y41.4275 F900
G01 X31.6485 F900
G01 X32.1247 Y42.8585 F900
G01 X28.7195 F900
G01 X29.2169 Y44.2895 F900
G01 X32.6009 F900
G01 X33.0771 Y45.7205 F900
G01 X29.7144 F900
G01 X30.2118 Y47.1515 F900
G01 X33.5533 F900
G01 X34.0295 Y48.5825 F900
G01 X30.7092 F900
G01 X31.2067 Y50.0135 F900
G01 X34.5057 F900
G01 X35.0981 Y51.4445 F900
G01 X31.7041 F900
G01 X32.2015 Y52.8755 F900
G01 X41.8760 F900
G01 X42.3752 Y51.4445 F900
G01 X38.1367 F900
G01 X38.7311 Y50.0135 F900
G01 X42.8743 F900
G01 X43.3734 Y48.5825 F900
G01 X39.2073 F900
G01 X39.6835 Y47.1515 F900
G01 X43.8725 F900
G01 X44.3716 Y45.7205 F900
G01 X40.1597 F900
G01 X40.6359 Y44.2895 F900
G01 X44.8707 F900
G01 X45.3699 Y42.8585 F900
G01 X41.1121 F900
G01 X41.5883 Y41.4275 F900
G01 X45.8690 F900
G01 X46.3681 Y39.9965 F900
G01 X42.0645 F900
G01 X42.5407 Y38.5655 F900
G01 X46.8672 F900
G01 X47.3663 Y37.1345 F900
G01 X43.0169 F900
G01 X43.4931 Y35.7035 F900
G01 X47.8654 F900
G01 X48.3646 Y34.2725 F900
G01 X43.9693 F900
G01 X44.1926 Y32.8415 F900
G01 X48.8637 F900
G01 X49.3628 Y31.4105 F900
G01 X42.9963 F900
G00 Z3.0000 F480
G00 X41.3769 Y52.8755 F2100
G00 Z-1.0000 F480
G01 Z-3.0000 F180
G01 Y54.3065 F900
G01 X32.6990 F900
G01 X33.1964 Y55.7375 F900
G01 X40.8778 F900
G00 Z3.0000 F480
G00 X38.1367 Y51.4445 F2100
G00 Z-1.0000 F480
G01 Z-3.0000 F180
G01 X37.5956 Y51.5388 F900
G03 X35.0879 Y50.7557 I-0.9751 J-1.2842 F900
G01 X29.4100 Y33.6936 F900
G03 X29.3290 Y33.2253 I1.5087 J-0.5021 F900
G01 X29.3335 Y33.0664 F900
G03 X30.9386 Y31.6015 I1.5853 J0.1252 F900
G01 X42.3181 F900
G03 X43.8205 Y33.7125 I-0.0001 J1.5902 F900
G01 X38.1426 Y50.7746 F900
G03 X37.5956 Y51.5388 I-1.5087 J-0.5020 F900
G01 X38.1367 Y51.4445 F900
G00 Z3.0000 F480
G00 X41.8760 Y52.8755 F2100
G00 Z-1.0000 F480
G01 Z-3.0000 F180
G01 X42.2157 Y52.8672 F900
G01 X53.5765 Y20.2952 F900
G02 X53.8865 Y19.2485 I-12.8394 J-4.3717 F900
G01 X53.8595 Y19.2379 F900
G02 X48.4421 Y19.2920 I-2.3602 J34.9573 F900
G01 X45.7271 Y27.4037 F900
G03 X44.2129 Y28.5081 I-1.5142 J-0.4860 F900
G01 X29.1371 F900
G03 X27.6046 Y27.4084 I-0.0197 J-1.5902 F900
G01 X25.0637 Y19.5701 F900
G02 X24.9832 Y19.3333 I-1.5879 J0.4076 F900
G01 X24.9730 Y19.3267 F900
G02 X23.1082 Y19.1696 I-1.7128 J9.1834 F900
G02 X20.2263 Y19.2331 I-0.9871 J20.6412 F900
G02 X20.5569 Y20.3452 I11.8688 J-2.9228 F900
G01 X32.9458 Y55.9849 F900
G02 X33.1055 Y56.3245 I0.7612 J-0.1507 F900
G02 X34.2783 Y56.4808 I1.1155 J-3.8922 F900
G02 X40.3400 Y56.4291 I2.5696 J-54.1448 F900
G02 X41.0023 Y56.2869 I-0.2835 J-2.9322 F900
G02 X41.1586 Y55.8981 I-1.8037 J-0.9510 F900
G01 X42.2157 Y52.8672 F900
G01 X41.8760 Y52.8755 F900
G00 Z3.0000 F480
G00 X24.8566 Y19.9625 F2100
G00 Z-2.5000 F480
G01 Z-3.2000 F180
G01 X20.7644 F900
G01 X21.2579 Y21.3935 F900
G01 X25.3205 F900
G01 X25.7844 Y22.8245 F900
G01 X21.7554 F900
G01 X22.2528 Y24.2555 F900
G01 X26.2482 F900
G01 X26.7121 Y25.6865 F900
G01 X22.7502 F900
G01 X23.2477 Y27.1175 F900
G01 X27.1760 F900
G01 X28.1280 Y28.5485 F900
G01 X23.7451 F900
G01 X24.2425 Y29.9795 F900
G01 X49.8619 F900
G01 X50.3610 Y28.5485 F900
G01 X45.1995 F900
G01 X46.1582 Y27.1175 F900
G01 X50.8601 F900
G01 X51.3593 Y25.6865 F900
G01 X46.6371 F900
G01 X47.1160 Y24.2555 F900
G01 X51.8584 F900
G01 X52.3575 Y22.8245 F900
G01 X47.5949 F900
G01 X48.0738 Y21.3935 F900
G01 X52.8566 F900
G01 X53.3506 Y19.9625 F900
G01 X48.5528 F900
G00 Z3.0000 F480
G00 X30.2396 Y29.9795 F2100
G00 Z-2.5000 F480
G01 Z-3.2000 F180
G01 Y31.4105 F900
G01 X24.7400 F900
G01 X25.2374 Y32.8415 F900
G01 X29.0435 F900
G01 X29.2675 Y34.2725 F900
G01 X25.7349 F900
G01 X26.2323 Y35.7035 F900
G01 X29.7437 F900
G01 X30.2199 Y37.1345 F900
G01 X26.7297 F900
G01 X27.2272 Y38.5655 F900
G01 X30.6961 F900
G01 X31.1723 Y39.9965 F900
G01 X27.7246 F900
G01 X28.2220 Y41.4275 F900
G01 X31.6485 F900
G01 X32.1247 Y42.8585 F900
G01 X28.7195 F900
G01 X29.2169 Y44.2895 F900
G01 X32.6009 F900
G01 X33.0771 Y45.7205 F900
G01 X29.7144 F900
G01 X30.2118 Y47.1515 F900
G01 X33.5533 F900
G01 X34.0295 Y48.5825 F900
G01 X30.7092 F900
G01 X31.2067 Y50.0135 F900
G01 X34.5057 F900
G01 X35.0981 Y51.4445 F900
G01 X31.7041 F900
G01 X32.2015 Y52.8755 F900
G01 X41.8760 F900
G01 X42.3752 Y51.4445 F900
G01 X38.1367 F900
G01 X38.7311 Y50.0135 F900
G01 X42.8743 F900
G01 X43.3734 Y48.5825 F900
G01 X39.2073 F900
G01 X39.6835 Y47.1515 F900
G01 X43.8725 F900
G01 X44.3716 Y45.7205 F900
G01 X40.1597 F900
G01 X40.6359 Y44.2895 F900
G01 X44.8707 F900
G01 X45.3699 Y42.8585 F900
G01 X41.1121 F900
G01 X41.5883 Y41.4275 F900
G01 X45.8690 F900
G01 X46.3681 Y39.9965 F900
G01 X42.0645 F900
G01 X42.5407 Y38.5655 F900
G01 X46.8672 F900
G01 X47.3663 Y37.1345 F900
G01 X43.0169 F900
G01 X43.4931 Y35.7035 F900
G01 X47.8654 F900
G01 X48.3646 Y34.2725 F900
G01 X43.9693 F900
G01 X44.1926 Y32.8415 F900
G01 X48.8637 F900
G01 X49.3628 Y31.4105 F900
G01 X42.9963 F900
G00 Z3.0000 F480
G00 X41.3769 Y52.8755 F2100
G00 Z-2.5000 F480
G01 Z-3.2000 F180
G01 Y54.3065 F900
G01 X32.6990 F900
G01 X33.1964 Y55.7375 F900
G01 X40.8778 F900
G00 Z3.0000 F480
G00 X38.1367 Y51.4445 F2100
G00 Z-2.5000 F480
G01 Z-3.2000 F180
G01 X37.5956 Y51.5388 F900
G03 X35.0879 Y50.7557 I-0.9751 J-1.2842 F900
G01 X29.4100 Y33.6936 F900
G03 X29.3290 Y33.2253 I1.5087 J-0.5021 F900
G01 X29.3335 Y33.0664 F900
G03 X30.9386 Y31.6015 I1.5853 J0.1252 F900
G01 X42.3181 F900
G03 X43.8205 Y33.7125 I-0.0001 J1.5902 F900
G01 X38.1426 Y50.7746 F900
G03 X37.5956 Y51.5388 I-1.5087 J-0.5020 F900
G01 X38.1367 Y51.4445 F900
G00 Z3.0000 F480
G00 X41.8760 Y52.8755 F2100
G00 Z-2.5000 F480
G01 Z-3.2000 F180
G01 X42.2157 Y52.8672 F900
G01 X53.5765 Y20.2952 F900
G02 X53.8865 Y19.2485 I-12.8394 J-4.3717 F900
G01 X53.8595 Y19.2379 F900
G02 X48.4421 Y19.2920 I-2.3602 J34.9573 F900
G01 X45.7271 Y27.4037 F900
G03 X44.2129 Y28.5081 I-1.5142 J-0.4860 F900
G01 X29.1371 F900
G03 X27.6046 Y27.4084 I-0.0197 J-1.5902 F900
G01 X25.0637 Y19.5701 F900
G02 X24.9832 Y19.3333 I-1.5879 J0.4076 F900
G01 X24.9730 Y19.3267 F900
G02 X23.1082 Y19.1696 I-1.7128 J9.1834 F900
G02 X20.2263 Y19.2331 I-0.9871 J20.6412 F900
G02 X20.5569 Y20.3452 I11.8688 J-2.9228 F900
G01 X32.9458 Y55.9849 F900
G02 X33.1055 Y56.3245 I0.7612 J-0.1507 F900
G02 X34.2783 Y56.4808 I1.1155 J-3.8922 F900
G02 X40.3400 Y56.4291 I2.5696 J-54.1448 F900
G02 X41.0023 Y56.2869 I-0.2835 J-2.9322 F900
G02 X41.1586 Y55.8981 I-1.8037 J-0.9510 F900
G01 X42.2157 Y52.8672 F900
G01 X41.8760 Y52.8755 F900
G00 Z3.0000 F480


;No. 2: Part 1
G00 X1.9801 Y21.4650 Z3.0000 F2100
G00 Z0.5000 F480
G01 Z-1.5000 F180
G03 X3.4729 Y18.5184 I34.0229 J15.3849 F900
G01 X3.5080 Y18.4567 F900
G03 X76.8281 Y43.8444 I34.3413 J19.3906 F900
G01 X76.7883 Y44.1194 F900
G03 X75.8186 Y48.5031 I-37.2774 J-5.9471 F900
G03 X74.8718 Y51.4472 I-35.5377 J-9.8042 F900
G01 X74.8470 Y51.5137 F900
G03 X-1.5898 Y37.8755 I-36.9972 J-13.6636 F900
G01 X-1.5703 Y36.6114 F900
G01 X-1.5104 Y35.3485 F900
G01 X-1.5055 Y35.2777 F900
G03 X0.2649 Y25.9125 I38.9065 J2.5050 F900
G03 X1.9801 Y21.4650 I35.1782 J11.0121 F900
G01 Z-3.0000 F180
G03 X3.4729 Y18.5184 I34.0229 J15.3849 F900
G01 X3.5080 Y18.4567 F900
G03 X76.8281 Y43.8444 I34.3413 J19.3906 F900
G01 X76.7883 Y44.1194 F900
G03 X75.8186 Y48.5031 I-37.2774 J-5.9471 F900
G03 X74.8718 Y51.4472 I-35.5377 J-9.8042 F900
G01 X74.8470 Y51.5137 F900
G03 X-1.5898 Y37.8755 I-36.9972 J-13.6636 F900
G01 X-1.5703 Y36.6114 F900
G01 X-1.5104 Y35.3485 F900
G01 X-1.5055 Y35.2777 F900
G03 X0.2649 Y25.9125 I38.9065 J2.5050 F900
G03 X1.9801 Y21.4650 I35.1782 J11.0121 F900
G01 Z-4.5000 F180
G03 X3.4729 Y18.5184 I34.0229 J15.3849 F900
G01 X3.5080 Y18.4567 F900
G03 X76.8281 Y43.8444 I34.3413 J19.3906 F900
G01 X76.7883 Y44.1194 F900
G03 X75.8186 Y48.5031 I-37.2774 J-5.9471 F900
G03 X74.8718 Y51.4472 I-35.5377 J-9.8042 F900
G01 X74.8470 Y51.5137 F900
G03 X-1.5898 Y37.8755 I-36.9972 J-13.6636 F900
G01 X-1.5703 Y36.6114 F900
G01 X-1.5104 Y35.3485 F900
G01 X-1.5055 Y35.2777 F900
G03 X0.2649 Y25.9125 I38.9065 J2.5050 F900
G03 X1.9801 Y21.4650 I35.1782 J11.0121 F900
G01 Z-6.0000 F180
G03 X3.4729 Y18.5184 I34.0229 J15.3849 F900
G01 X3.5080 Y18.4567 F900
G03 X76.8281 Y43.8444 I34.3413 J19.3906 F900
G00 Z-4.5000 F480
G01 X76.7883 Y44.1194 F900
G03 X75.8186 Y48.5031 I-37.2774 J-5.9471 F900
G01 Z-6.0000 F180
G03 X74.8718 Y51.4472 I-35.5377 J-9.8042 F900
G01 X74.8470 Y51.5137 F900
G03 X-1.5898 Y37.8755 I-36.9972 J-13.6636 F900
G01 X-1.5703 Y36.6114 F900
G01 X-1.5104 Y35.3485 F900
G01 X-1.5055 Y35.2777 F900
G03 X0.2649 Y25.9125 I38.9065 J2.5050 F900
G00 Z-4.5000 F480
G03 X1.9801 Y21.4650 I35.1782 J11.0121 F900
G00 Z-5.5000 F480
G01 Z-6.5000 F180
G03 X3.4729 Y18.5184 I34.0229 J15.3849 F900
G01 X3.5080 Y18.4567 F900
G03 X76.8281 Y43.8444 I34.3413 J19.3906 F900
G00 Z-4.5000 F480
G01 X76.7883 Y44.1194 F900
G03 X75.8186 Y48.5031 I-37.2774 J-5.9471 F900
G00 Z-5.5000 F480
G01 Z-6.5000 F180
G03 X74.8718 Y51.4472 I-35.5377 J-9.8042 F900
G01 X74.8470 Y51.5137 F900
G03 X-1.5898 Y37.8755 I-36.9972 J-13.6636 F900
G01 X-1.5703 Y36.6114 F900
G01 X-1.5104 Y35.3485 F900
G01 X-1.5055 Y35.2777 F900
G03 X0.2649 Y25.9125 I38.9065 J2.5050 F900
G00 Z-4.5000 F480
G03 X1.9801 Y21.4650 I35.1782 J11.0121 F900
G00 Z3.0000 F480
G00 X0.0000 Y0.0000 F2100

M05
